setcpm(90/4)

$hihat: sound("hh!32").gain(.3)

$drums: sound("<bd     sd  [-  bd] sd>*8").gain(.6)

$melody: note(`<[e1 -] - - [e1 e1] f1 f1  [c1 c1] [- c1]
                [e1 -] - - [e1 e1] f1 f1 <[a1 a1] [a1 a1 a1]> [g1 -]>*8`)
         .sound("square, gm_synth_strings_1, gm_french_horn")
         .attack(.1).release(.05)
         .fm(2).fmattack(.01).fmenv("exp")
         ._scope()